X:1
T:Title
%%score 1 2
L:1/8
Q:1/4=83
M:6/8
K:E
V:1 treble nm="Strings 1, Soprano"
V:2 bass nm="Strings 1, Bass"
V:1
 z3 z2 B, | [B,E]2 [B,E] [EG][EF]E | [EB]2 [Ec] [EB]2 E | [EG]2 [EG] [DF]E[B,F] | %4
w: 1.~When~|first~ I~ start ed~ to~|seek~ the~ Lord,~ I'm~|glad~ I~ count ed~ the~|
 [B,E]3- [B,E]2 B, | [B,E]2 [B,E][K:treble] [EG][EF]E | [GB]2 [Ac] [GB]2 E | %7
w: cost;~ * I~|ful ly~ meas ured~ to~|Je sus'~ Word;~ I'm~|
 [EG]2 [EG] [B,F][B,E][B,F] | [B,E]3- [B,E]2 [GB] | [Ge]2 [Ge] [Ge][Bd][Ac] | %10
w: glad~ I~ count ed~ the~|cost.~ * *||
 [GB]2 [EG] [GB]2 [EB] | [Ec]2 [EB] [EG][EF]E | [DB]3- [DB]2 B, | [B,E]2 [B,E] [EG][EF]E | %14
w: ||||
 [GB]2 [Ac] [GB]2 E | [EG]2 [EG] [DF][B,E][B,F] | [B,E]6 |] %17
w: |||
V:2
 z3 z2 [E,G,] | [E,G,]2 [E,G,] [E,B,][E,A,][E,G,] | [E,G,]2 [E,A,] [E,G,]2 [E,G,] | %3
 [E,B,]2 [E,B,] [B,,A,][B,,G,][B,,A,] | [E,G,]3- [E,G,]2 [E,G,] | %5
 [E,G,]2 [E,G,] [E,B,][E,A,][E,G,] | [E,E]2 [E,E] [E,E]2 [E,G,] | %7
 [B,,B,]2 [B,,B,] [B,,A,][B,,G,][B,,A,] | [E,G,]3- [E,G,]2 [E,B,] | %9
 [E,B,]2 [E,B,] [E,B,][E,C][E,=D] | [E,E]2 [E,B,] [E,E]2 [G,E] | [A,E]2 [G,E] [E,B,][E,A,][E,G,] | %12
 [B,,A,]3- [B,,A,]2 [E,G,] | [E,G,]2 [E,G,] [E,B,][E,A,][E,G,] | [E,E]2 [E,E] [E,E]2 [C,^A,] | %15
 [B,,B,]2 [B,,B,] [B,,A,][B,,G,][B,,A,] | [E,G,]6 |] %17

